X: 010
T: Jolly Toper
B: 204 Favourite Country Dances
N: Published by Straight & Skillern, London ca.1775
F: http://imslp.org/wiki/204_Favourite_Country_Dances_(Various) p.5 #10
Z: 2014 John Chambers <jc:trillian.mit.edu>
M: C
L: 1/8
K: A
%  - - - - - - - - - - - - - - - - - - - - - - - - -
e2 |\
cAAA (3(cde) dc | dBBc (3(def) ed |\
cAAA a2gf | ecBc A2 :|
|: e2 |\
ac'ba bgfe | fgaf ecBA |\
FAGB Aagf | ecBc A2 :|
%  - - - - - - - - - - - - - - - - - - - - - - - - -
%%begintext align
%% Cast off 1 Cu. turn the 3d Wo. Part:
%% cast off & turn the 3d Man hands
%% across with the 3d Cu. lead up to
%% the top foot it & cast off
%%endtext

%%sep 1 1 500
%%sep 1 1 500
